static/img/kroki/504140451e76881f0e5f4bed505c0b84.svg

<?xml version="1.0" encoding="us-ascii" standalone="no"?><svg xmlns="http://www.w3.org/2000/svg" xmlns:xlink="http://www.w3.org/1999/xlink" contentStyleType="text/css" height="152px" preserveAspectRatio="none" style="width:309px;height:152px;" version="1.1" viewBox="0 0 309 152" width="309px" zoomAndPan="magnify"><defs/><g><!--class azure_cosmos_db_account--><g id="elem_azure_cosmos_db_account"><rect codeLine="23" fill="#3D176E" height="39.7891" id="azure_cosmos_db_account" rx="2.5" ry="2.5" style="stroke:#000D19;stroke-width:0.5;" width="261" x="24" y="7"/><ellipse cx="39" cy="26.8945" fill="#ADD1B2" rx="11" ry="11" style="stroke:#181818;stroke-width:1.0;"/><path d="M41.9688,32.5352 Q41.3906,32.832 40.75,32.9727 Q40.1094,33.1289 39.4063,33.1289 Q36.9063,33.1289 35.5781,31.4883 Q34.2656,29.832 34.2656,26.707 Q34.2656,23.582 35.5781,21.9258 Q36.9063,20.2695 39.4063,20.2695 Q40.1094,20.2695 40.75,20.4258 Q41.4063,20.582 41.9688,20.8789 L41.9688,23.5977 Q41.3438,23.0195 40.75,22.7539 Q40.1563,22.4727 39.5313,22.4727 Q38.1875,22.4727 37.5,23.5508 Q36.8125,24.6133 36.8125,26.707 Q36.8125,28.8008 37.5,29.8789 Q38.1875,30.9414 39.5313,30.9414 Q40.1563,30.9414 40.75,30.6758 Q41.3438,30.3945 41.9688,29.8164 L41.9688,32.5352 Z " fill="#000000"/><text fill="#D9B8FF" font-family="Helvetica" font-size="17" lengthAdjust="spacing" textLength="219" x="58" y="32.7798">azure_cosmos_db_account</text></g><!--class azure_cosmos_db_private_link--><g id="elem_azure_cosmos_db_private_link"><rect codeLine="26" fill="#3D176E" height="39.7891" id="azure_cosmos_db_private_link" rx="2.5" ry="2.5" style="stroke:#000D19;stroke-width:0.5;" width="295" x="7" y="106.79"/><ellipse cx="22" cy="126.6845" fill="#ADD1B2" rx="11" ry="11" style="stroke:#181818;stroke-width:1.0;"/><path d="M24.9688,132.3252 Q24.3906,132.622 23.75,132.7627 Q23.1094,132.9189 22.4063,132.9189 Q19.9063,132.9189 18.5781,131.2783 Q17.2656,129.622 17.2656,126.497 Q17.2656,123.372 18.5781,121.7158 Q19.9063,120.0595 22.4063,120.0595 Q23.1094,120.0595 23.75,120.2158 Q24.4063,120.372 24.9688,120.6689 L24.9688,123.3877 Q24.3438,122.8095 23.75,122.5439 Q23.1563,122.2627 22.5313,122.2627 Q21.1875,122.2627 20.5,123.3408 Q19.8125,124.4033 19.8125,126.497 Q19.8125,128.5908 20.5,129.6689 Q21.1875,130.7314 22.5313,130.7314 Q23.1563,130.7314 23.75,130.4658 Q24.3438,130.1845 24.9688,129.6064 L24.9688,132.3252 Z " fill="#000000"/><text fill="#D9B8FF" font-family="Helvetica" font-size="17" lengthAdjust="spacing" textLength="253" x="41" y="132.5698">azure_cosmos_db_private_link</text></g><!--link azure_cosmos_db_account to azure_cosmos_db_private_link--><g id="link_azure_cosmos_db_account_azure_cosmos_db_private_link"><path codeLine="29" d="M154.5,47.22 C154.5,64.36 154.5,83.27 154.5,100.41 " fill="none" id="azure_cosmos_db_account-to-azure_cosmos_db_private_link" style="stroke:#1A83AF;stroke-width:2.0;"/><polygon fill="#1A83AF" points="154.5,106.41,158.5,97.41,154.5,101.41,150.5,97.41,154.5,106.41" style="stroke:#1A83AF;stroke-width:2.0;"/></g><!--SRC=[XT31Qi9040RWUvvYmREGL5hrKaW5QIzIQc-bXCdkh2v9TiFiHD7ITw_MjcmJezUPZvb_PcqK2gngteaAgnp9HxumjWQ2IgH4RZjpfICnq1hqQDnkpftbgs015Of7B3V8Ha9RlAwDB2nwBsw2rWF8OaMkiUeqdWciFxJGSg1c9NYVCfF96yOWZ9hc4wtRiZrqC5B9-0uxp952-Y5n7AjasYPNLrsy-qyipHv54ZvjuHWxCJihljN5b4SHXEmS-jllpVWCIXcx4hT1xUMKYIpIl_fo3SfjZrf3wSCrdf7GyQx6MUSgd4wK7f_5JtquaiVN2TWtX9bqld8-Kta6KXuiYuye-kmXDPaDC6QbiSN9zGqPlWsIT39Av-_3-ujZeYy0]--></g></svg>

<svg xmlns="http://www.w3.org/2000/svg" width="309" height="152" viewBox="0 0 309 152"><rect width="261" height="39.789" x="24" y="7" fill="#3D176E" rx="2.5" ry="2.5" style="stroke:#000d19;stroke-width:.5"/><circle cx="39" cy="26.895" r="11" fill="#ADD1B2" style="stroke:#181818;stroke-width:1"/><path d="M41.969 32.535q-.578.297-1.219.438-.64.156-1.344.156-2.5 0-3.828-1.64-1.312-1.657-1.312-4.782t1.312-4.781q1.328-1.656 3.828-1.656.703 0 1.344.156.656.156 1.219.453v2.719q-.625-.578-1.219-.844-.594-.281-1.219-.281-1.343 0-2.031 1.078-.687 1.062-.687 3.156t.687 3.172q.688 1.062 2.031 1.062.625 0 1.219-.265.594-.281 1.219-.86z"/><text x="58" y="32.78" fill="#D9B8FF" font-family="Helvetica" font-size="17" textLength="219">azure_cosmos_db_account</text><rect width="295" height="39.789" x="7" y="106.79" fill="#3D176E" rx="2.5" ry="2.5" style="stroke:#000d19;stroke-width:.5"/><circle cx="22" cy="126.684" r="11" fill="#ADD1B2" style="stroke:#181818;stroke-width:1"/><path d="M24.969 132.325q-.578.297-1.219.438-.64.156-1.344.156-2.5 0-3.828-1.64-1.312-1.657-1.312-4.782t1.312-4.781q1.328-1.656 3.828-1.656.703 0 1.344.156.656.156 1.219.453v2.719q-.625-.579-1.219-.844-.594-.281-1.219-.281-1.343 0-2.031 1.078-.687 1.062-.687 3.156t.687 3.172q.688 1.062 2.031 1.062.625 0 1.219-.265.594-.281 1.219-.86z"/><text x="41" y="132.57" fill="#D9B8FF" font-family="Helvetica" font-size="17" textLength="253">azure_cosmos_db_private_link</text><path fill="none" d="M154.5 47.22v53.19" style="stroke:#1a83af;stroke-width:2"/><path fill="#1A83AF" d="m154.5 106.41 4-9-4 4-4-4z" style="stroke:#1a83af;stroke-width:2"/></svg>
